!!!id: EG004
!!!page: 12-15
!!!COM: Anonymous
!!!LYR: Anonymous
!!!PTL@@FR: Chansons Populaires du Canada
!!!OTL@@FR: En roulant ma boule
!!!PUB: G. E. Desbarats
!!!YEM:
!!!PDT: 1865
!!!SMA:
!!!OMD:
!!!AGN-Laforte:
!!!AGN-type:
!!!AGN-rime:
**kern
*clefG2
*k[]
*C:
*M6/8
*
*
!LO:TX:a:i:t=Voix seule, puis la reprise en chœur.
8r
!LO:TX:a:t=(segno)
=1
4ee
8dd
4cc
8g
=2
8a
8g
8a
4.g
=3
4ee
8dd
4cc
8g
!!LO:PB:g=original
=4
(4a
8b/)
4cc
!LO:TX:a:t=FIN.
=:|!|:
!LO:TX:a:t=(eighth rest, upper voice)
8g
!LO:TX:a:i:t=Voix seule, reprise en chœur.
=5
4cc
8dd
4cc
8g
=6
4a
8a
4.g
!!LO:PB:g=original
=7
4cc
8dd
4cc
8g
=8
(4.a
4g)
=:|!|
!LO:TX:a:i:t=Voix seule.
8g
=9
4cc
8cc
4dd
8cc
!!LO:PB:g=original
=10
4ee
8cc
4dd
8cc
=11
4ee
8cc
4dd
8cc
=12
8ee
8dd
8cc
4.dd
!LO:TX:a:t=(segno)
==||
*
*
==|
